symbols/web/notifications/materialsymbolsrounded/notifications_wght200_20px.svg

<svg xmlns="http://www.w3.org/2000/svg" height="20" width="20"><path d="M4.208 15.604q-.187 0-.323-.135-.135-.136-.135-.323 0-.167.135-.313.136-.145.323-.145h1.188V8.542q0-1.584 1.042-2.875 1.041-1.292 2.687-1.605v-.583q0-.396.25-.635.25-.24.625-.24t.625.24q.25.239.25.635v.583q1.646.313 2.677 1.605 1.031 1.291 1.031 2.875v6.146h1.209q.187 0 .323.145.135.146.135.313 0 .187-.135.323-.136.135-.323.135ZM10 9.75Zm0 8.271q-.562 0-.958-.375-.396-.375-.396-.979h2.708q0 .604-.375.979t-.979.375Zm-3.688-3.333h7.355V8.542q0-1.5-1.063-2.584Q11.542 4.875 10 4.875q-1.5 0-2.594 1.083-1.094 1.084-1.094 2.584Z"/></svg>

<svg xmlns="http://www.w3.org/2000/svg" height="20" width="20"><path d="M4.208 15.604Q4.021 15.604 3.885 15.469Q3.75 15.333 3.75 15.146Q3.75 14.979 3.885 14.833Q4.021 14.688 4.208 14.688H5.396V8.542Q5.396 6.958 6.438 5.667Q7.479 4.375 9.125 4.062V3.479Q9.125 3.083 9.375 2.844Q9.625 2.604 10 2.604Q10.375 2.604 10.625 2.844Q10.875 3.083 10.875 3.479V4.062Q12.521 4.375 13.552 5.667Q14.583 6.958 14.583 8.542V14.688H15.792Q15.979 14.688 16.115 14.833Q16.25 14.979 16.25 15.146Q16.25 15.333 16.115 15.469Q15.979 15.604 15.792 15.604ZM10 9.75Q10 9.75 10 9.75Q10 9.75 10 9.75Q10 9.75 10 9.75Q10 9.75 10 9.75ZM10 18.021Q9.438 18.021 9.042 17.646Q8.646 17.271 8.646 16.667H11.354Q11.354 17.271 10.979 17.646Q10.604 18.021 10 18.021ZM6.312 14.688H13.667V8.542Q13.667 7.042 12.604 5.958Q11.542 4.875 10 4.875Q8.5 4.875 7.406 5.958Q6.312 7.042 6.312 8.542Z"/></svg>
